resources/icons/16px/bring-data.svg

<?xml version="1.0" encoding="UTF-8"?>
<svg viewBox="0 0 16 16" version="1.1" xmlns="http://www.w3.org/2000/svg" xmlns:xlink="http://www.w3.org/1999/xlink">
    <g stroke="none" stroke-width="1" fill="none" fill-rule="evenodd">
        <path d="M14,14 C14.5522847,14 15,14.4477153 15,15 C15,15.5522847 14.5522847,16 14,16 L2,16 C1.44771525,16 1,15.5522847 1,15 C1,14.4477153 1.44771525,14 2,14 L14,14 Z M7.995,3.005 C8.545,3.005 8.995,3.45455045 8.995,4.004001 L8.995,4.004001 L8.995,9.58841658 L10.285,8.29970529 C10.465,8.11988511 10.715,8.009995 10.995,8.009995 C11.545,8.009995 11.995,8.45954545 11.995,9.008996 C11.995,9.28871628 11.885,9.53846653 11.705,9.71828671 L11.705,9.71828671 L8.705,12.7152897 C8.525,12.8951099 8.265,13.005 7.995,13.005 C7.725,13.005 7.475,12.8951099 7.285,12.7152897 L7.285,12.7152897 L4.285,9.71828671 C4.105,9.53846653 3.995,9.28871628 3.995,9.008996 C3.995,8.45954545 4.445,8.009995 4.995,8.009995 C5.275,8.009995 5.525,8.11988511 5.705,8.29970529 L5.705,8.29970529 L6.995,9.58841658 L6.995,4.01399101 C6.995,3.46454046 7.445,3.005 7.995,3.005 Z M14,0 C14.5522847,-1.01453063e-16 15,0.44771525 15,1 C15,1.55228475 14.5522847,2 14,2 C13.4477153,2 13,1.55228475 13,1 C13,0.44771525 13.4477153,1.01453063e-16 14,0 Z M11,0 C11.5522847,-1.01453063e-16 12,0.44771525 12,1 C12,1.55228475 11.5522847,2 11,2 C10.4477153,2 10,1.55228475 10,1 C10,0.44771525 10.4477153,1.01453063e-16 11,0 Z M8,0 C8.55228475,-1.01453063e-16 9,0.44771525 9,1 C9,1.55228475 8.55228475,2 8,2 C7.44771525,2 7,1.55228475 7,1 C7,0.44771525 7.44771525,1.01453063e-16 8,0 Z M5,0 C5.55228475,-1.01453063e-16 6,0.44771525 6,1 C6,1.55228475 5.55228475,2 5,2 C4.44771525,2 4,1.55228475 4,1 C4,0.44771525 4.44771525,1.01453063e-16 5,0 Z M2,0 C2.55228475,-1.01453063e-16 3,0.44771525 3,1 C3,1.55228475 2.55228475,2 2,2 C1.44771525,2 1,1.55228475 1,1 C1,0.44771525 1.44771525,1.01453063e-16 2,0 Z" fill="#000000" fill-rule="nonzero"></path>
    </g>
</svg>

<svg xmlns="http://www.w3.org/2000/svg" viewBox="0 0 16 16">
  <path d="M14 14a1 1 0 0 1 0 2H2a1 1 0 0 1 0-2zM7.995 3.005c.55 0 1 .45 1 .999v5.584l1.29-1.288a1.002 1.002 0 0 1 1.42 1.419l-3 2.996a1.015 1.015 0 0 1-1.42 0l-3-2.997A1.002 1.002 0 0 1 5.705 8.3l1.29 1.29V4.013c0-.55.45-1.009 1-1.009M14 0a1 1 0 1 1 0 2 1 1 0 0 1 0-2m-3 0a1 1 0 1 1 0 2 1 1 0 0 1 0-2M8 0a1 1 0 1 1 0 2 1 1 0 0 1 0-2M5 0a1 1 0 1 1 0 2 1 1 0 0 1 0-2M2 0a1 1 0 1 1 0 2 1 1 0 0 1 0-2"/>
</svg>
